X: 6233
T: Carnegie Halls
R: jig
M: 6/8
K: Emajor
g2e fBB-|BGA Bef|g2e fBB|Bag fed|
g2e fBB-|BGA Bef|zGA Bde-|ede fga:|
zge f2e|zge f2e|zge f2e|zGA Bef|
zge f2e|zge f2e|zbe f2e|age def|
zge f2e|zge f2e|zge f2e|zGA Bef|
zge f2e|zde fga|a2g2e2|d2e2f2||

